!!!OTL: Dang de enqing bi hai shen
!!!ARE: Asia, China,ÿShandong Pingdu
!! III, 316
!!!SCT: C1751
!!!YEM: Copyright 1995, estate of Helmut Schaffrath.
**kern
*ICvox
*Ivox
*M2/4
*k[f#]
*G:
{8a
16b
16a
4g
=1
16a
16g
16a
16b
8a
8e
=2
8dd
16a
16b
4g}
=3
{8g
16g
16e
8g
16g
16a
=4
8b
8e
4g}
=5
{8dd
16b
16dd
8a
8a
=6
8.dd
16b
4a}
=7
{8dd
16dd
16b
8a
16a
16g
=8
8.e
16g
4a}
=9
{16f#
16e
16d
16f#
4e}
=10
{8dd
16b
16dd
8a
8a
=11
16a
16f#
16a
16f#
8e
8e
=12
16e
16g
16d
16e
8f#
8e
=13
2d}
=14
{4dd
4dd
=15
16b
16a
16g
16b
4a}
=16
{8dd
16b
16dd
8a
8a
=17
16a
16f#
16a
16f#
8e
8e
=18
16e
16g
16d
16e
8f#
8e
=19
2d}
==
!!!AGN: Xiaodiao. Xin minge
!!!AMT: simple duple
!!!AIN: vox
!!!EED: Helmut Schaffrath
!!!EEV: 1.0
*-
